X:1
T:Les Heures
T:L'Heure de Pourpre
T:3. L'Heure de Pourpre
T:Augusta Mary Anne Holmès
T:Les Heures
T:(Holmès)
T:OpenScore (CC0)
T:OpenScore (CC0)
T:OpenScore (CC0)
T:OpenScore (CC0)
T:OpenScore (CC0)
C:Augusta Mary Anne Holmès
Z:Augusta Mary Anne Holmès
Z:OpenScore (CC0)
%%score 1 { ( 2 5 ) | ( 3 4 6 ) }
L:1/8
Q:1/4=48
M:3/4
K:G
V:1 treble nm="Chant\nVoice"
V:2 treble nm="Piano"
V:5 treble 
V:3 bass 
V:4 bass 
V:6 bass 
V:1
"^Lento""_Lento" z6 | z6 | z6 |"^(Ton original)" z6 | z6 | z6 | z2 z2 z z/!p! B,/ | %7
w: ||||||C'est|
 (E2 B,2-) B, z |!>(! (E2 B,2-)!>)! B,/ z/ B, |!<(! D D F3/2 F/!<)! B2 | %10
w: l'heu- re! _|l'heu- re _ Où|le so- leil mou- rant|
!mf! (3:2:4d3/2 ^c/ B/ F/!>(! (3D2 E/ F/ ^A,2!>)! | B,2- B, z z2 | z2 z2 z z/!p! B,/ | %13
w: Rou- le vers  sa rou- ge de- meu-|re _|C'est|
!>(! (E2 B,2-)!>)! B, z |!<(! (3:2:4E3/2 E/ ^D/ E/!<)! B4 | !^!F3 !^!F !^!F3/2 !^!F/ | !^!F4- F z | %17
w: l'heu- re! _|l'heu- re du  bai- ser|fauve et tor- tu-|rant! _|
 z6 | z6 | z2 z2 z z/!pp! F/ | (B2 F2-) F z/ F/ | (B2 F2-) F!<(! (F!<)! | %22
w: ||E-|cou- te! _ E-|\- cou- te, _ Blot-|
 F2!>(! G F/ E/!>)! F) z/ F/ | G!<(! z/ G/ A3/2 A/ B3/2 B/!<)! |!mf! (d2 ^c2-) c z/!f! c/ | %25
w: tie en- tre mes bras, Mon|cœur qui sai- gne goutte à|gout- te... _ E-|
 !^!f2 !^!^c2- c z/!mf! c/ |"^Avec douleur" (e2 B2-) B z |!p! d- d/4 F/4 D/4 E/4 F z ^A,3/2 A,/ | %28
w: cou- te! _ E-|cou- te! _|Si _ tu me tra- his, tu mour-|
 B,2- B, z z2 | z6 | z6 | z2 z2 z!mf! B, |!>(! (A2 G2 F)!>)! z |!f! (c2 B2 A)!p! (3z/ B,/ B,/ || %34
w: ras! _|||Oh!|pleu- * re!|pleu- * re Si ja-|
[M:4/4] E (3z/ E/ E/"^cresccendo" F (3z/ F/ F/ G (3z/ G/ G/ B z/ B/ || %35
w: mais en pas- sant, même en rêve, Un dé- sir t'ef-|
[M:2/4]!f! (d2 D) z/!mf! D/ ||[M:3/4]!<(! F3/2 !breath!F/ B3/2 !breath!B/ d3/2 !breath!d/!<)! | %37
w: \- fleu- re! Oh!|pleu- re, pleu- re, pleu- re,|
!ff! f2-"^Sans ralentir" f/4 !breath!d/4 B/4 G/4 (F/4D/4) ^C/4 B,/4 ^A,3/2 A,/ | B,2- B, z z2 | %39
w: pleu- * re, car la nei- * ge boi- ra ton|sang! _|
 z6 | z6 | z2 z2 z z/!p! B,/ | (E2 B,2-) B, z |"^Sospirando" (E2 B,2-) B, z/ B,/ | %44
w: ||C'est|l'heu- re! _|l'heu- re _ Où|
!p! D D G3/2 G/ B2 | (3:2:4d3/2 B/ A/ G/ (3D2 E/ F/ ^A,2 | B,2- B, z z z/!<(! (B,/ | %47
w: le so- leil mou- rant|Rou- le vers sa rou- ge de- meu-|\- re... _ C'est|
 E2 G2!<)! B E) |!ff!"^Désespérément" (!^!=f2 !^!e) !^!d!f! c3/2 e/ | (B2 A) G (3:2:2E2 (G | %50
w: l'heu- * * re!|l'heu- * re Où l'on|s'ai- * me, Où l'on|
 C2)"^Poco allarg."[Q:1/4=42] !^!B, !^!B,[Q:1/4=40] !^!B, !^!B, | %51
w: s'aime en se tor- tu-|
"^a Tempo"[Q:1/4=48] B,2- B, z z2 | z6 | z6 | z6 | z6 | z6 | z6 |] %58
w: rant! _|||||||
V:2
 z6 | [GB^ce] z [FBdf] z z2 | [GB^ce] z [FBdf] z z2 |"_poco crescendo" .[B^ce]2 .[Bdf]2 .[Bd=f]2 | %4
 .[Be^g]2 .[^Bf^a]2 .[f=a^c']2 |!p!!>(! !///-![_a=d']2 d2 !///-![ad']/d/ [ad']/!>)! z/ | %6
!pp! !///-![=a^d']2 ^d2 !///-![ad']/d/ [ad']/ z/ |!p! ([B^ce]2 [Bdf]2-) [Bdf] z | %8
 ([B^ce]2 [Bdf]2-) [Bdf] z |!<(! ([FB]2 [Bd]2 [df]2)!<)! |!mf! [DFBd]2 z2!p! [^A,EF] z | %11
!<(! [B,^DB]2 [^DF^d]2 [FBdf]2!<)! |!mf! [^df^d']>!>(![^cdf^c'] (([cd-f-c']2 [Bdfb]2))!>)! | %13
!p! ([B^ce]2 [Bdf]2-) [Bdf] z | ([B^ce]2 [Bdf]2-) [Bdf] z | [DFB]2- [DFB] z [CF^A]2 | %16
!<(! [^DFB]/ z/ !///-!^d/f/ !///-!d2!<)! f2 |!f! !///-!^d3 f3 | !///-!=f d !///-!^g2 d2 | %19
 !///-!=g!>(! e !///-!^a2 e2!>)! |!pp! [^db] z (F2 (3^G^AF | B2 F2) (3(^G^AF | %22
!<(! F2!<)!!>(! =G2!>)! F2) | [EG]2 [FA]2 [GB]2 |!mf! [F^Gd]2 [^E^G^c]2!<(! B2!<)! | %25
!f! !^![F^Af]2 !^![^C^c]2!p! B2 |!mf! ([=EGB=e]2 [B,B]2) A2 |!p! [=DFB=d] z z2 [^A,EF] z | %28
!p!"_molto cresc." !^![B,^DFB]2 !^![^DFB^d]2 !^![FBdf]2 | %29
"^Appassionato e rubato"!ff!!8va(! (!^![gb^d'g']>[fbd'f']) [fbd'f']!^![^dfd']!^![^cf^c']!^![Bdb]!8va)! | %30
 (3:2:2[^Ae^a]2 [^ce^c'] (3[GAg][EAe][FAf] (3[GAg][FAf][EAe] | %31
 (3:2:2[^D=A^d]2!>(! [Ff] (([C^D-A-c]2 [B,DAB]2))!>)! |!mf! ([Ac^da]2!>(! [GBdg]2 [FAdf])!>)! z | %33
!f!!>(! ([c^dfc']2 [Bdfb]2!>)! [Adfa])!mp! z || %34
[M:4/4]!p! [B,E] z"_crescendo" [B,DF] z [B,EG] z [B,EGB] z ||[M:2/4]!f! [D=FBd]2- [DFBd] z || %36
[M:3/4]!f! [D^FBd] z z2 z!f! [D=FBd]/ z/ |!ff! [D^FBd]2 z2 [^A,EF^A] z | %38
!f!"^Appassionato e rubato"!<(! !^![B,^DFB]2 !^![DF^d]2 !^![FBdf]2!<)! | %39
!ff!!8va(! (!^![c'^d'c'']>[bd'b']) [bd'b']/!8va)! z/ !^![fbf']- [fbf']/[^dfd']/[^cf^c']/[Bdb]/ | %40
 (3:2:2[^Ae^a]2 [^ce^c'] (3[GAg][EAe][FAf] (3[GAg][FAf][EAe] | %41
"_dim." (3:2:2[^D=A^d]2!>(! [FAf] (([CD-A-c]2 [B,DAB])) z!>)! | %42
!p!!>(! [B^ce]2 [Bdf]2- [Bdf]!>)! z |!>(! [B^ce]2 [Bdf]2- [Bdf]!>)! z | %44
!p!!>(! ([Bdg]2 [dgb]2!>)! [dgbd']2) |!pp! [DGBd]2 z2 [^A,EF^A]2 | %46
 [B,^DFB]2!>(! ([Ac^da][Gcdg]/).[FAcf]/!>)!!p! .[EFAe].[DFAd] |!<(! [EGe]2 [Geg]2 [Beb]2!<)! | %48
!ff!!>(!!8va(! !^![=f^g=f']2 !^![ege']!^![dgd']!>)!!f! ([cac']>[eae'])!8va)! | %49
 ([Beb]2 [Aea][Geg]) (3:2:2[Ece]2 [Gcg] |!>(! [CEFc]2"^Poco allarg.""_Suivez" [B,^DFB]4!>)! | %51
!<(! [B,E^GB]2 [EGBe]2 [GBe^g]2!<)! |!f!!8va(! ([^gb^g']>[fgbf']) ([fgbf']2 [egbe']2)!8va)! | %53
!p! z2!>(! ([ce^gc']>[Begb]) [Begb]2!>)! | z2 z2!p! [=C_G=c]2- | %55
!>(! [=C_G=c]4- (3:2:2[CGc]2 [B,^GB]!>)! |!pp! [B,^GB]6- | [B,^GB]4- [B,GB] !fermata!z |] %58
V:3
 z2 z2 z!p! B, |!ped! !^!E2!ped! !^!B,2-!ped-up!!ped! B,!ped-up! z | %2
!ped! !^!E2!ped! !^!B,2-!ped-up!!ped! B,!ped-up! z!ped-up! | %3
[K:treble]!ped! !^!E2!ped-up!!ped! !^!B,2!ped-up!!ped! !^!G2!ped-up! | %4
!ped! !^!D2!ped-up!!ped! !^!^G2!ped-up!!ped! !^!^D2!ped-up! | %5
[K:bass]!ped! !^![_B,,,_B,,]2 !^![=F,,,=F,,]2- [F,,,F,,] z!ped-up! | %6
!ped! !^![^F,,,^F,,]2 !^![B,,,,B,,,]2- [B,,,,B,,,]!ped-up! z | %7
 ([B,EG]2 [B,DF]2-)!ped! [B,DF]!ped-up! z | ([B,EG]2 [B,DF]2-)!ped! [B,DF] z!ped-up! | %9
[K:treble] ([B,D]2 [DF]2 [FB]2) |[K:bass]!ped! [F,,F,]2 z2!ped-up!!ped! [F,,F,] z!ped-up! | %11
!ped! !///-!B,,,3 B,,3!ped-up! |!ped! ^D>^C (C2 B,2)!ped-up! | %13
 ([B,EG]2 [B,DF]2-)!ped! [B,DF] z!ped-up! | ([B,EG]2 [B,DF]2-)!ped! [B,DF] z!ped-up! | %15
 F,2- F, z F,2 |!ped!{/[B,,,B,,]} F,2 B,2 ^D2!ped-up! |[K:treble] (!^!c>B) (B2 A2) | %18
[K:bass]!ped!{/[E,,,E,,]} (3:2:2^G2 B (3=FDE (3FED!ped-up! | %19
[K:bass]!ped!{/[A,,,A,,]} (3:2:2^C2 E!ped-up!!ped! G,2 F,2!ped-up! | %20
"_Una corda"!>(! [B,^D]2!>)!!>(! [B,D]2!>)!!>(! [^A,E]2!>)! | %21
!>(! [B,^D]2!>)!!>(! [B,D]2!>)!!>(! [^A,E]2!>)! |!>(! [B,^D]2!>)!!>(! [B,^C]2!>)!!>(! [B,D]2!>)! | %23
!>(! E,2!>)!!>(! D,2!>)!!>(! G,2!>)! |!p!!>(! B,,2!>)!!>(! ^C,2!>)!!ped! x2!ped-up! | %25
!>(! [F,^A,]2!>)!!>(! [F,A,]2!>)!!>(! [^E,B,]2!>)! | %26
!>(! [E,G,B,]2!>)!!>(! [E,G,]2!>)!!>(! [^D,A,]2!>)! | [F,,B,,=D,F,] z z2 [F,,F,] z | %28
!ped! z2 !^!^D,2 !^!F,2!ped-up! |!ped! (!^!G>F) F!^!^D!^!^C!^!B,!ped-up! | %30
!ped! (3:2:2^A,2 ^C (3G,E,F, (3G,F,E,!ped-up! |!ped!{/[B,,,B,,]} (3:2:2^D,2 F, (C,2 B,,2)!ped-up! | %32
!ped! (F,2 G,2 A,) z!ped-up! | (A,2 B,2 C) z ||[M:4/4] [G,,G,] z [F,,F,] z [E,,E,] z [B,,,B,,] z || %35
[M:2/4] [G,,,G,,]2- [G,,,G,,] z ||[M:3/4] [F,,,F,,] z z2 z [G,,G,]/ z/ | [F,,F,]2 z2 [F,,F,] z | %38
!ped! !^!B,,2 !^!^D,2 !^!F,2!ped-up! |!ped! (!^!c>B) B/z/[K:bass]!^!F- F/^D/^C/B,/!ped-up! | %40
!ped! (3:2:2^A,2 ^C (3G,E,F, (3G,F,E,!ped-up! | %41
!ped!{/[B,,,B,,]} (3:2:2^D,2 F, (C,2 B,,) z!ped-up! | [B,EG]2 [B,DF]2- [B,DF] z | %43
 ([B,EG]2 [B,DF]2-) [B,DF] z |[K:treble] ([B,DG]2 [DGB]2 [B,DG]2) |[K:bass] [D,,D,]2 z2 [F,,F,]2 | %46
!ped! z2 (F,G,/A,/) (CB,)!ped-up! | [E,,E,]2 [B,,,B,,]2 [G,,,G,,]2 | %48
!ped! !^!=F2 !^!E!^!D!ped-up!!ped! (C>E)!ped-up! | %49
!ped! (B,2 A,)G,!ped-up!!ped!{/[C,,C,]} (3:2:2E,2 G,!ped-up! | [A,,,A,,]2 [B,,,B,,]4 | %51
!ped! B,,2 E,2 ^G,2!ped-up! |!ped! ^G>F (F2 E2)!ped-up! |!ped! z2 (C>B,) B,2!ped-up! | %54
!ped! [E,,,E,,]2- [E,,,E,,] z!8vb(! _A,,,2-!ped-up! | _A,,,4- (3:2:2A,,,2 [E,,,E,,] | %56
"_Una corda" .[E,,,E,,]2 z2 .[E,,,E,,]2 | .[E,,,E,,]2!8vb)! z2 !fermata!z2 |] %58
V:4
 x6 | z2 z2 B,,,2 | z2 z2 B,,,2 |[K:treble] x6 | x6 |[K:bass] x6 | x6 | z2 z2 !^!B,,,2 | %8
 z2 z2 !^!B,,,2 |[K:treble] x6 |[K:bass] x6 | x6 |{/[B,,,B,,]} [F,B,]4- [F,B,]2 | z2 z2 !^!B,,,2 | %14
 z2 z2 !^!B,,,2 | x6 | x6 |[K:treble] x6 |[K:bass] x6 |[K:bass] x6 | %20
 .F,/.F,/ z .F,/.F,/ z .F,/.F,/ z | .F,/.F,/ z .F,/.F,/ z .F,/.F,/ z | %22
 .F,/.F,/ z .E,/.E,/ z .F,/.F,/ z | .E,,/.E,,/ z .D,,/.D,,/ z .G,,/.G,,/ z | %24
 .B,,,/.B,,,/ z .^C,,/.C,,/ z{/C,,} (3^D,^E,^C, |{F,,(^C,F,)} .C,/.C,/ z .C,/.C,/ z .C,/.C,/ z | %26
 .B,,/.B,,/ z .B,,/.B,,/ z .B,,/.B,,/ z | x6 | !///-!B,,, B,, z !///-!B,,,/B,,/ z !///-!B,,,/B,,/ | %29
{/[B,,,B,,]} !arpeggio![B,,,B,,]2- [B,,,B,,]2 z2 |{/[F,,,F,,]} [F,,,F,,]4- [F,,,F,,] z | x6 | %32
{/[B,,,B,,]} [B,,,B,,]4- [B,,,B,,] z |{/[B,,,B,,]} [B,,,B,,]4- [B,,,B,,] z ||[M:4/4] x8 || %35
[M:2/4] x4 ||[M:3/4] x6 | x6 | [B,,,B,,]4- [B,,,B,,] z |{/[G,G]} [G,G]4[K:bass] x x | %40
{/[F,,,F,,]} [F,,,F,,]2- [F,,,F,,]2- [F,,,F,,] z | x6 | z2 z2 B,,,2 | z2 z2 !^!B,,,2 | %44
[K:treble] x6 |[K:bass] x6 |{/B,,,} B,,4- B,, z | x6 | %48
{/[E,,,E,,]} [E,,,E,,]4{/[A,,,A,,]} [A,,,A,,] z |{/[G,,,G,,]} [G,,,G,,]2- [G,,,G,,] z x2 | x6 | %51
 !arpeggio![E,,,E,,]4- [E,,,E,,] z | [B,E]6 | [E,,,E,,]4- [E,,,E,,] z | x4!8vb(! x2 | x6 | x6 | %57
 x2!8vb)! x4 |] %58
V:5
 x6 | x6 | x6 | x6 | x6 | x6 | x6 | x6 | x6 | x6 | x6 | x6 | x6 | x6 | x6 | x6 | x6 | x6 | x6 | %19
 x6 | x6 | x6 | x6 | B,/B,/"_cresc." z D/D/ z D/D/ z | %24
 .D/!>(!.D/ z!>)! .^C/.C/ z (3[^D^d][^E^e][C^c] | x2 x2 (3[^D^d][^E^e][^C^c] | %26
 x2 x2 (3[^C^c][^D^d][B,B] | x6 | x6 |!8va(! x6!8va)! | x6 | x6 | x6 | x6 ||[M:4/4] x8 || %35
[M:2/4] x4 ||[M:3/4] x6 | x6 | x6 |!8va(! x5/2!8va)! x7/2 | x6 | x6 | x6 | x6 | x6 | x6 | x6 | x6 | %48
!8va(! x6!8va)! | x6 | x6 | x6 |!8va(! x6!8va)! | x6 | x6 | x6 | x6 | x6 |] %58
V:6
 x6 | x6 | x6 |[K:treble] x6 | x6 |[K:bass] x6 | x6 | x6 | x6 |[K:treble] x6 |[K:bass] x6 | x6 | %12
 x6 | x6 | x6 | x6 | x6 |[K:treble] x6 |[K:bass] x6 |[K:bass] x6 | x6 | x6 | x6 | x6 | x6 | x6 | %26
 x6 | x6 | x6 | x6 | x6 | x6 | x6 | x6 ||[M:4/4] x8 ||[M:2/4] x4 ||[M:3/4] x6 | x6 | x6 | %39
 x4-[K:bass] [B,,,B,,] z | x6 | x6 | x6 | x6 |[K:treble] x6 |[K:bass] x6 | x6 | x6 | x6 | x6 | x6 | %51
 x6 |{/[E,,,E,,]} [E,,,E,,]4- [E,,,E,,] z | x6 | x4!8vb(! x2 | x6 | x6 | x2!8vb)! x4 |] %58

